!!!!SEGMENT: pl-kk--kk-i-205_anonim--justus-ut-palma-florebit.krn
!!!cenid: 16xx:764
!!!COM: Anonim
!!!COM-rism: pe30004985
!!!CDT:
!!!CNT:
!!!OTL: Justus ut palma florebit
!!!PDT:
!!!AGN: Sacred
!!!SMS-siglum: PL-Kk
!!!SMS-shelfmark: Kk.I.205
!!!NIFC-rismID: 1001143749
!!!URL-scan: http://repozytorium.nifc.pl/skany/pl-kk-nut--i-205
!!!ONB-nifc:
!!!SMS-variant:
!!!SMS-altvar:
**kern	**text	**kern	**text	**kern	**text	**kern	**text	**kern	**text
*part5	*part5	*part4	*part4	*part3	*part3	*part2	*part2	*part1	*part1
*staff5	*staff5	*staff4	*staff4	*staff3	*staff3	*staff2	*staff2	*staff1	*staff1
*I"Baſso Ripieno.	*	*I"Baſso.	*	*I"Tenore	*	*I"Alto.	*	*I"Canto.	*
*I'B rip	*	*I'B	*	*I'T	*	*I'A	*	*I'S	*
*clefF3	*	*clefF3	*	*clefC4	*	*clefC3	*	*clefC1	*
*k[]	*	*k[]	*	*k[]	*	*k[]	*	*k[]	*
*M2/1	*	*M2/1	*	*M2/1	*	*M2/1	*	*M2/1	*
*met(c|)	*	*met(c|)	*	*met(c|)	*	*met(c|)	*	*met(c|)	*
=1-	=1-	=1-	=1-	=1-	=1-	=1-	=1-	=1-	=1-
!LO:TX:t=P:problem:kreska pseudotaktowa	!	!	!	!	!	!	!	!	!
!LO:TX:a:t=A. Capella	!	!LO:TX:a:t=Lente.	!	!LO:TX:a:t=Lente.	!	!	!	!	!
1A	Ju-	1A	Ju-	1A	Ju-	1.c	Ju-	1a	Ju-
!LO:TX:t=P:problem:kreska pseudotaktowa	!	!LO:TX:t=P:problem:kreska pseudotaktowa	!	!	!	!	!	!LO:TX:t=P:problem:kreska pseudotaktowa	!
1AA	-stus	1AA	-stus	1A	-stus	.	.	1a	-stus
!	!	!	!	!	!	!LO:TX:t=P:problem:kreska pseudotaktowa	!	!	!
.	.	.	.	.	.	2A,</	-stus	.	.
=2-	=2-	=2-	=2-	=2-	=2-	=2-	=2-	=2-	=2-
!	!	!LO:TX:t=P:problem:kreska pseudotaktowa	!	!LO:TX:a:t=8	!	!	!	!	!
*	*ij	*	*	*	*	*	*	*	*
1E	Ju-	1E	Ju-	00r	.	2B/	Ju-	00r	.
!	!	!	!	!	!	!LO:TX:t=P:problem:kreska pseudotaktowa	!	!	!
.	.	.	.	.	.	2c/	.	.	.
*2\right	*	*2\right	*	*	*	*	*	*	*
2F,<\	-stus	2F,<\	-st(us)	.	.	2d,</	-st(us)	.	.
*	*Xij	*	*	*	*	*2\right	*	*	*
!	!	!	!	!	!	!LO:TX:t=P:problem:kreska pseudotaktowa	!	!	!
!LO:TX:t=P:problem:kreska pseudotaktowa	!	!LO:TX:t=P:problem:kreska pseudotaktowa	!	!	!	!	!	!	!
2G\	ut	2G\	ut	.	.	2e\	ut	.	.
=3-	=3-	=3-	=3-	=3-	=3-	=3-	=3-	=3-	=3-
!	!	!	!	!	!	!LO:TX:t=P:problem:kreska pseudotaktowa	!	!	!
(2A\	pal-	(2A\	pal-	.	.	1f	pal-	.	.
!	!	!LO:TX:t=P:problem:kreska pseudotaktowa	!	!	!	!	!	!	!
2B\)	.	2B\)	.	.	.	.	.	.	.
!LO:TX:t=P:problem:kreska pseudotaktowa	!	!LO:TX:t=P:problem:kreska pseudotaktowa	!	!	!	!	!	!	!
1c	.	1c	.	.	.	2e,<\	-ma	.	.
!	!	!	!	!	!	!LO:TX:t=P:problem:kreska pseudotaktowa	!	!	!
.	.	.	.	.	.	2g\	ut	.	.
=4-	=4-	=4-	=4-	=4-	=4-	=4-	=4-	=4-	=4-
!	!	!	!	!LO:TX:t=P:problem:kreska pseudotaktowa	!	!	!	!LO:TX:t=P:problem:kreska pseudotaktowa	!
2A,<\	-ma	2A,<\	-ma	00r	.	(2f\	pal-	0r	.
!LO:TX:t=P:problem:kreska pseudotaktowa	!	!LO:TX:t=P:problem:kreska pseudotaktowa	!	!	!	!LO:TX:t=P:problem:kreska pseudotaktowa	!	!	!
2c\	ut	2c\	ut	.	.	2e\)	.	.	.
(2B\	pal-	(2B\	pal-	.	.	2.d,<\	-ma	.	.
!LO:TX:t=P:problem:kreska pseudotaktowa	!	!LO:TX:t=P:problem:kreska pseudotaktowa	!	!	!	!	!	!	!
2G\)	.	2G\)	.	.	.	.	.	.	.
!	!	!	!	!	!	!LO:TX:t=P:problem:kreska pseudotaktowa	!	!	!
.	.	.	.	.	.	4e\	flo-	.	.
=5-	=5-	=5-	=5-	=5-	=5-	=5-	=5-	=5-	=5-
!	!	!LO:TX:t=P:problem:kreska pseudotaktowa	!	!	!	!	!	!LO:TX:t=P:problem:kreska pseudotaktowa	!
1A	.	(1A	-ma	.	.	2f\	.	1cc	ut
!	!	!	!	!	!	!LO:TX:t=P:problem:kreska pseudotaktowa	!	!	!
.	.	.	.	.	.	[<2e\	-re-	.	.
*	*	*	*	*	*	*	*	*2\right	*
!	!	!	!	!	!	!LO:N:xstem:cue	!	!	!
2G,<\	-ma	2G,<\)	.	.	.	4e\]	.	2b\	pal-
.	.	.	.	.	.	4d\	.	.	.
!	!	!LO:TX:t=P:problem:kreska pseudotaktowa	!	!	!	!	!	!LO:TX:t=P:problem:kreska pseudotaktowa	!
2F/	flo-	2F/	flo-	.	.	1d	.	2a\	-ma
=6-	=6-	=6-	=6-	=6-	=6-	=6-	=6-	=6-	=6-
!	!	!LO:TX:t=P:problem:kreska pseudotaktowa	!	!	!	!	!	!	!
1E	-re-	1E	-re-	2r	.	.	.	2.g\	flo-
!	!	!	!	!LO:TX:t=P:problem:kreska pseudotaktowa	!	!LO:TX:t=P:problem:kreska pseudotaktowa	!	!	!
.	.	.	.	2G/	flo-	2c/	.	.	.
!	!	!	!	!	!	!	!	!LO:TX:t=P:problem:kreska pseudotaktowa	!
.	.	.	.	.	.	.	.	4a\	.
!LO:TX:t=P:problem:kreska pseudotaktowa	!	!LO:TX:t=P:problem:kreska pseudotaktowa	!	!	!	!LO:TX:t=P:problem:kreska pseudotaktowa	!	!	!
1D	-bit	1D	-bit	2G/	-re-	0d	-bit,	2b\	-re-
!	!	!	!	!LO:TX:t=P:problem:kreska pseudotaktowa	!	!	!	!LO:TX:t=P:problem:kreska pseudotaktowa	!
.	.	.	.	2F/	.	.	.	[<2a\	.
=7-	=7-	=7-	=7-	=7-	=7-	=7-	=7-	=7-	=7-
!	!	!LO:TX:t=P:problem:kreska pseudotaktowa	!	!	!	!	!	!	!
!	!	!LO:TX:a:t=1	!	!	!	!	!	!LO:N:xstem:cue	!
*	*	*	*	*lig	*	*	*	*	*
!	!	!	!	!LO:N:vis=0	!	!	!	!	!
1r	.	1r	.	1G	.	.	.	4a\]	.
.	.	.	.	.	.	.	.	4g/	.
.	.	.	.	.	.	.	.	1g	.
!	!	!LO:TX:t=P:problem:kreska pseudotaktowa	!	!LO:TX:t=P:problem:kreska pseudotaktowa	!	!	!	!	!
!LO:LB:g=original	!	!	!	!LO:N:vis=0	!	!	!	!	!
1D	ut	1D	ut	1A	.	2rA	.	.	.
!	!	!	!	!	!	!	!	!LO:TX:t=P:problem:kreska pseudotaktowa	!
.	.	.	.	.	.	2A/	ut	2f#X/	.
*	*	*	*	*Xlig	*	*	*	*	*
=8-	=8-	=8-	=8-	=8-	=8-	=8-	=8-	=8-	=8-
!LO:TX:t=P:problem:kreska pseudotaktowa	!	!LO:TX:t=P:problem:kreska pseudotaktowa	!	!LO:TX:t=P:problem:kreska pseudotaktowa	!	!LO:TX:t=P:problem:kreska pseudotaktowa	!	!LO:TX:t=P:problem:kreska pseudotaktowa	!
1G	pal-	1G	pal-	1G	-bit	1B	pal-	1g	-bit
!	!	!	!	!LO:TX:a:t=1	!	!	!	!LO:TX:t=P:problem:kreska pseudotaktowa	!
2G,<\	-ma	2G,<\	-ma	1r	.	2B,</	-ma	1ree	.
!LO:TX:t=P:problem:kreska pseudotaktowa	!	!LO:TX:t=P:problem:kreska pseudotaktowa	!	!	!	!LO:TX:t=P:problem:kreska pseudotaktowa	!	!	!
2F\	flo-	2F/	flo-	.	.	2d\	flo-	.	.
!	!	!	!	!	!	!LO:LB:g=original	!	!	!
=9-	=9-	=9-	=9-	=9-	=9-	=9-	=9-	=9-	=9-
(2E/	-re-	2E/	-re-	2r	.	2c/	-re-	2re	.
*	*	*	*	*2\right	*	*	*	*	*
!	!	!LO:TX:t=P:problem:kreska pseudotaktowa	!	!LO:TX:t=P:problem:kreska pseudotaktowa	!	!LO:TX:t=P:problem:kreska pseudotaktowa	!	!	!
2D/)	.	2D/	.	(2d\	Ju-	2B/	.	(2d/	Ju-
!LO:TX:t=P:problem:kreska pseudotaktowa	!	!LO:TX:t=P:problem:kreska pseudotaktowa	!	!	!	!LO:TX:t=P:problem:kreska pseudotaktowa	!	!	!
1C	-bit	1C	-bit	2e\)	.	1c	-bit	2g/)	.
!	!	!	!	!LO:TX:t=P:problem:kreska pseudotaktowa	!	!	!	!LO:TX:t=P:problem:kreska pseudotaktowa	!
.	.	.	.	2e\	-stus	.	.	2g,</	-stus
=10-	=10-	=10-	=10-	=10-	=10-	=10-	=10-	=10-	=10-
!	!	!LO:TX:t=P:problem:kreska pseudotaktowa	!	!	!	!LO:TX:t=P:problem:kreska pseudotaktowa	!	!	!
!	!	!LO:TX:a:t=2	!	!	!	!LO:TX:a:t=2	!	!	!
0r	.	0r	.	(2e\	ut	0r	.	(2g/	ut
!	!	!	!	!LO:TX:t=P:problem:kreska pseudotaktowa	!	!	!	!LO:TX:t=P:problem:kreska pseudotaktowa	!
.	.	.	.	2d,<\)	.	.	.	2fny/)	.
.	.	.	.	(2c\	pal-	.	.	(2e/	pal-
!	!	!	!	!LO:TX:t=P:problem:kreska pseudotaktowa	!	!	!	!LO:TX:t=P:problem:kreska pseudotaktowa	!
!	!	!	!	!	!	!	!	!LO:SIC:v:t=custos d	!
.	.	.	.	2B\)	.	.	.	2d/)	.
!	!	!	!	!	!	!	!	!LO:LB:g=original	!
=11-	=11-	=11-	=11-	=11-	=11-	=11-	=11-	=11-	=11-
!	!	!LO:TX:t=P:problem:kreska pseudotaktowa	!	!	!	!LO:TX:t=P:problem:kreska pseudotaktowa	!	!	!
1C	Ju-	1C	Ju-	2c,<\	-ma	1e	Ju-	2c,</	-ma
!	!	!	!	!LO:TX:t=P:problem:kreska pseudotaktowa	!	!	!	!LO:TX:t=P:problem:kreska pseudotaktowa	!
.	.	.	.	2c\	Jus-	.	.	2g\	flo-
2F,<\	-st(us)	2F,<\	-stus	2c,<\	-t(us)	2f,<\	-stus	2a\	.
!LO:TX:t=P:problem:kreska pseudotaktowa	!	!LO:TX:t=P:problem:kreska pseudotaktowa	!	!LO:TX:t=P:problem:kreska pseudotaktowa	!	!LO:TX:t=P:problem:kreska pseudotaktowa	!	!	!
2A\	ut	2A\	ut	2c\	ut	2f\	ut	1cc	-re-
=12-	=12-	=12-	=12-	=12-	=12-	=12-	=12-	=12-	=12-
!	!	!LO:TX:t=P:problem:kreska pseudotaktowa	!	!	!	!LO:TX:t=P:problem:kreska pseudotaktowa	!	!	!
1G	pal-	1G	pal-	2d\	pal-	1g	pal-	.	.
!	!	!	!	!LO:TX:t=P:problem:kreska pseudotaktowa	!	!	!	!LO:TX:t=P:problem:kreska pseudotaktowa	!
.	.	.	.	2d\	.	.	.	2b\	.
!	!	!LO:LB:g=original	!	!LO:TX:t=P:problem:kreska pseudotaktowa	!	!	!	!LO:TX:t=P:problem:kreska pseudotaktowa	!
2C,</	-ma	2C,</	-ma	1c	.	2e,<\	-ma	1cc	-bit
!LO:TX:t=P:problem:kreska pseudotaktowa	!	!LO:TX:t=P:problem:kreska pseudotaktowa	!	!	!	!LO:TX:t=P:problem:kreska pseudotaktowa	!	!	!
[<2c\	flo-	[<2c\	flo-	.	.	2e\	flo-	.	.
=13-	=13-	=13-	=13-	=13-	=13-	=13-	=13-	=13-	=13-
*	*	*	*	*	*	*lig	*	*	*
!LO:N:xstem:cue	!	!LO:N:xstem:cue	!	!	!	!LO:N:vis=0	!	!	!
4c\]	.	4c\]	.	1.A	-ma	1c	-re-	2r	.
4B\	.	4B\	.	.	.	.	.	.	.
4A\	.	4A\	.	.	.	.	.	1cc	flo-
!LO:TX:t=P:problem:kreska pseudotaktowa	!	!LO:TX:t=P:problem:kreska pseudotaktowa	!	!	!	!	!	!	!
4G\	.	4G\	.	.	.	.	.	.	.
!	!	!	!	!	!	!LO:TX:t=P:problem:kreska pseudotaktowa	!	!	!
!	!	!	!	!	!	!LO:N:vis=0	!	!	!
2F\	-re-	2F\	-re-	.	.	1d	.	.	.
!	!	!LO:TX:t=P:problem:kreska pseudotaktowa	!	!LO:TX:t=P:problem:kreska pseudotaktowa	!	!	!	!LO:TX:t=P:problem:kreska pseudotaktowa	!
2G\	.	2G\	.	2B\	flo-	.	.	2b\	-re-
*	*	*	*	*	*	*Xlig	*	*	*
=14-	=14-	=14-	=14-	=14-	=14-	=14-	=14-	=14-	=14-
!	!	!LO:TX:t=P:problem:kreska pseudotaktowa	!	!LO:TX:t=P:problem:kreska pseudotaktowa	!	!	!	!LO:TX:t=P:problem:kreska pseudotaktowa	!
1A	.	1A	.	1c	-re-	2f\	.	1a	.
!	!	!	!	!	!	!LO:TX:t=P:problem:kreska pseudotaktowa	!	!	!
.	.	.	.	.	.	2e\	.	.	.
!	!	!LO:TX:t=P:problem:kreska pseudotaktowa	!	!	!	!	!	!	!
!LO:TX:t=P:problem:kreska pseudotaktowa	!	!LO:TX:a:t=P:problem:♮ above	!	!LO:TX:t=P:problem:kreska pseudotaktowa	!	!	!	!	!
1En	-bit	1En	-bit	1B,<	-bit	2e,<\	-bit	2g,</	-bit
!	!	!	!	!LO:SIC:v:t=custos G	!	!LO:TX:t=P:problem:kreska pseudotaktowa	!	!LO:TX:t=P:problem:kreska pseudotaktowa	!
.	.	.	.	.	.	2e\	flo-	2g/	flo-
!	!	!	!	!LO:LB:g=original	!	!	!	!	!
=15-	=15-	=15-	=15-	=15-	=15-	=15-	=15-	=15-	=15-
2rE	.	2r	.	2r	.	2f\	-re-	2a\	-re-
!LO:TX:t=P:problem:kreska pseudotaktowa	!	!LO:TX:t=P:problem:kreska pseudotaktowa	!	!LO:TX:t=P:problem:kreska pseudotaktowa	!	!LO:TX:t=P:problem:kreska pseudotaktowa	!	!LO:TX:t=P:problem:kreska pseudotaktowa	!
2E/	flo-	2E/	flo-	2G/	flo-	[<2e\	.	2b\	.
*	*	*	*	*	*	*lig	*	*	*
!LO:LB:g=original	!	!	!	!	!	!LO:N:vis=0	!	!	!
(2A\	-re-	(2A\	-re-	2A\	-re-	1e]	.	2cc\	.
!	!	!LO:TX:t=P:problem:kreska pseudotaktowa	!	!LO:TX:t=P:problem:kreska pseudotaktowa	!	!	!	!LO:TX:t=P:problem:kreska pseudotaktowa	!
2G\)	.	2G\	.	2B\	.	.	.	[<2b\	.
=16-	=16-	=16-	=16-	=16-	=16-	=16-	=16-	=16-	=16-
!	!	!	!	!	!	!LO:TX:t=P:problem:kreska pseudotaktowa	!	!LO:N:xstem:cue	!
!	!	!	!	!	!	!LO:N:vis=0	!	!	!
2F/	.	2F/	.	2c\	.	1f	.	4b\]	.
.	.	.	.	.	.	.	.	4a\	.
!	!	!	!	!LO:TX:t=P:problem:kreska pseudotaktowa	!	!	!	!	!
2D/	.	2D/)	.	2d\	.	.	.	1a	.
*	*	*	*	*	*	*Xlig	*	*	*
!LO:TX:t=P:problem:kreska pseudotaktowa	!	!LO:TX:t=P:problem:kreska pseudotaktowa	!	!LO:TX:t=P:problem:kreska pseudotaktowa	!	!LO:TX:t=P:problem:kreska pseudotaktowa	!	!	!
1E	-bit	1E	-bit.	1B	.	1e	.	.	.
!	!	!	!	!	!	!	!	!LO:TX:t=P:problem:kreska pseudotaktowa	!
!	!	!	!	!	!	!	!	!LO:TX:a:t=P:problem:# above	!
.	.	.	.	.	.	.	.	2g#X/	.
=17-	=17-	=17-	=17-	=17-	=17-	=17-	=17-	=17-	=17-
!	!	!LO:TX:t=P:problem:kreska pseudotaktowa	!	!	!	!	!	!	!
!LO:TX:t=P:problem:kreska pseudotaktowa	!	!LO:TX:a:t=1	!	!LO:TX:t=P:problem:kreska pseudotaktowa	!	!LO:TX:t=P:problem:kreska pseudotaktowa	!	!LO:TX:t=P:problem:kreska pseudotaktowa	!
1rc	.	1r	.	1A	-bit.	1c	-bit.	0.a	-bit.
!	!	!	!	!	!	!LO:TX:t=P:problem:kreska pseudotaktowa	!	!	!
!	!	!	!	!	!	!LO:TX:a:t=1	!	!	!
2.A\	Si-	2.A\	Si-	2.c\	Si-	1r	.	.	.
!LO:TX:t=P:problem:kreska pseudotaktowa	!	!LO:TX:t=P:problem:kreska pseudotaktowa	!	!LO:TX:t=P:problem:kreska pseudotaktowa	!	!	!	!	!
4A\	-cut	4A\	-cut	4c\	-cut	.	.	.	.
!	!	!	!	!	!	!LO:LB:g=original	!	!	!
=18-	=18-	=18-	=18-	=18-	=18-	=18-	=18-	=18-	=18-
2A\	Ce-	2A\	Ce-	2c\	Ce-	2.e\	Si-	.	.
!LO:TX:t=P:problem:kreska pseudotaktowa	!	!LO:TX:t=P:problem:kreska pseudotaktowa	!	!LO:TX:t=P:problem:kreska pseudotaktowa	!	!	!	!	!
2A\	-dr(us)	2A,<\	-dr(us)	2c\	-dr(us)	.	.	.	.
!	!	!	!	!	!	!LO:TX:t=P:problem:kreska pseudotaktowa	!	!	!
.	.	.	.	.	.	4e\	-cut	.	.
!	!	!	!	!	!	!	!	!LO:TX:a:t=7.	!
2E/	Li-	2E/	Li-	2B\	Li-	2e\	Ce-	00r	.
!	!	!	!	!	!	!LO:TX:t=P:problem:kreska pseudotaktowa	!	!	!
1A	.	1A	.	1c	.	2e,<\	-dr(us)	.	.
=19-	=19-	=19-	=19-	=19-	=19-	=19-	=19-	=19-	=19-
.	.	.	.	.	.	2A/	Li-	.	.
!LO:TX:t=P:problem:kreska pseudotaktowa	!	!LO:TX:t=P:problem:kreska pseudotaktowa	!	!LO:TX:t=P:problem:kreska pseudotaktowa	!	!	!	!	!
2G\	.	2G\	.	2B\	.	1d	-ba-	.	.
2F/	.	2F/	.	2A/	.	.	.	.	.
!	!	!LO:TX:t=P:problem:kreska pseudotaktowa	!	!LO:TX:t=P:problem:kreska pseudotaktowa	!	!LO:TX:t=P:problem:kreska pseudotaktowa	!	!	!
2E/	-ba-	2E/	-ba-	2G/	-ba-	2c\	.	.	.
=20-	=20-	=20-	=20-	=20-	=20-	=20-	=20-	=20-	=20-
2D,</	-ni	2D,</	-ni	2A,</	-ni	2f,<\	-ni	.	.
!LO:TX:t=P:problem:kreska pseudotaktowa	!	!LO:TX:t=P:problem:kreska pseudotaktowa	!	!	!	!LO:TX:t=P:problem:kreska pseudotaktowa	!	!	!
2D/	mul-	2D/	mul-	1d	mul-	2f\	mul-	.	.
1.A	-ti-	1.A	-ti-	.	.	1.e	-ti-	0r	.
!	!	!	!	!LO:TX:t=P:problem:kreska pseudotaktowa	!	!	!	!	!
.	.	.	.	2c\	.	.	.	.	.
=21-	=21-	=21-	=21-	=21-	=21-	=21-	=21-	=21-	=21-
!	!	!	!	!	!	!	!	!LO:TX:t=P:problem:kreska pseudotaktowa	!
.	.	.	.	2A\	-ti-	.	.	.	.
!	!	!LO:TX:t=P:problem:kreska pseudotaktowa	!	!LO:TX:t=P:problem:kreska pseudotaktowa	!	!LO:TX:t=P:problem:kreska pseudotaktowa	!	!	!
2G\	-pli-	2G\	-pli-	2B\	-pli-	2e\	-pli-	.	.
2.A\	-ca-	2A\	-ca-	2c\	-ca-	2f\	-ca-	1r	.
!	!	!LO:TX:t=P:problem:kreska pseudotaktowa	!	!LO:TX:t=P:problem:kreska pseudotaktowa	!	!LO:TX:t=P:problem:kreska pseudotaktowa	!	!	!
.	.	2A\	-bi-	2c\	-bi-	2e\	-bi-	.	.
4A\	-bi-	.	.	.	.	.	.	.	.
=22-	=22-	=22-	=22-	=22-	=22-	=22-	=22-	=22-	=22-
*lig	*	*lig	*	*	*	*	*	*	*
!LO:N:vis=0	!	!LO:N:vis=0	!	!	!	!	!	!	!
1D	-t(ur)	1D	-tur	2d,<\	-tur.	2f,<\	-tur	2r	.
!	!	!	!	!LO:TX:t=P:problem:kreska pseudotaktowa	!	!LO:TX:t=P:problem:kreska pseudotaktowa	!	!	!
.	.	.	.	2d\	Si-	2f\	Si-	1a	Si-
!LO:TX:t=P:problem:kreska pseudotaktowa	!	!LO:TX:t=P:problem:kreska pseudotaktowa	!	!	!	!	!	!	!
!LO:N:vis=0	!	!LO:N:vis=0	!	!	!	!	!	!	!
1E	.	1E	.	2B,<\	-cut	2e\	-cut	.	.
.	.	.	.	1c	Ce-	1e	ce-	2gny\	-cut
*Xlig	*	*Xlig	*	*	*	*	*	*	*
!LO:LB:g=original	!	!	!	!	!	!	!	!	!
=23-	=23-	=23-	=23-	=23-	=23-	=23-	=23-	=23-	=23-
!	!	!LO:TX:t=P:problem:kreska pseudotaktowa	!	!	!	!	!	!	!
!	!	!LO:TX:a:t=4	!	!	!	!	!	!	!
00r	.	00r	.	.	.	.	.	2a\	Ced-
!	!	!	!	!LO:TX:t=P:problem:kreska pseudotaktowa	!	!LO:TX:t=P:problem:kreska pseudotaktowa	!	!LO:TX:t=P:problem:kreska pseudotaktowa	!
.	.	.	.	2B\	-dr(us)	2d\	-dr(us)	2b\	-rus
!	!	!	!	!	!	!	!	!LO:LB:g=original	!
.	.	.	.	2A/	Li-	2e\	Li-	2cc\	Li-
!	!	!	!	!LO:TX:t=P:problem:kreska pseudotaktowa	!	!LO:TX:t=P:problem:kreska pseudotaktowa	!	!LO:TX:t=P:problem:kreska pseudotaktowa	!
.	.	.	.	2A/	-ba-	2f\	-ba-	2a\	-ba-
=24-	=24-	=24-	=24-	=24-	=24-	=24-	=24-	=24-	=24-
.	.	.	.	2G,</	-ni	2g,<\	-ni	2b,<\	-ni
!	!	!	!	!LO:TX:t=P:problem:kreska pseudotaktowa	!	!LO:TX:t=P:problem:kreska pseudotaktowa	!	!LO:TX:t=P:problem:kreska pseudotaktowa	!
.	.	.	.	2A\	mul-	2e\	mul-	2cc\	mul-
.	.	.	.	2A\	-ti-	2f\	-ti-	2cc\	-ti-
!	!	!	!	!LO:TX:t=P:problem:kreska pseudotaktowa	!	!	!	!LO:TX:t=P:problem:kreska pseudotaktowa	!
.	.	.	.	2B\	-pli-	1g	.	2b\	-pli-
!	!	!	!	!LO:LB:g=original	!	!	!	!	!
=25-	=25-	=25-	=25-	=25-	=25-	=25-	=25-	=25-	=25-
2r	.	2rD	.	2c\	-ca-	.	.	2a\	-ca-
!LO:TX:t=P:problem:kreska pseudotaktowa	!	!LO:TX:t=P:problem:kreska pseudotaktowa	!	!LO:TX:t=P:problem:kreska pseudotaktowa	!	!LO:TX:t=P:problem:kreska pseudotaktowa	!	!LO:TX:t=P:problem:kreska pseudotaktowa	!
2D/	mul-	2D/	mul-	2d\	.	2f\	.	2a\	-bi-
!	!	!LO:TX:t=P:problem:kreska pseudotaktowa	!	!	!	!LO:LB:g=original	!	!LO:TX:t=P:problem:kreska pseudotaktowa	!
1E	-ti-	1E	-ti-	2G/	.	2e\	-ca-	0g	-tur
!	!	!	!	!	!	!LO:TX:t=P:problem:kreska pseudotaktowa	!	!	!
.	.	.	.	1c	.	2e\	-bi-	.	.
=26-	=26-	=26-	=26-	=26-	=26-	=26-	=26-	=26-	=26-
!	!	!LO:TX:t=P:problem:kreska pseudotaktowa	!	!	!	!LO:TX:t=P:problem:kreska pseudotaktowa	!	!	!
1G	-pli-	1G	-pli-	.	.	1d	-tur.	.	.
.	.	.	.	2B\	.	.	.	.	.
!	!	!LO:LB:g=original	!	!	!	!	!	!LO:TX:t=P:problem:kreska pseudotaktowa	!
2F/	-ca-	2F/	-ca-	2A/	.	2r	.	1r	.
!	!	!LO:TX:t=P:problem:kreska pseudotaktowa	!	!LO:TX:t=P:problem:kreska pseudotaktowa	!	!	!	!	!
2E/	.	2E/	.	2G/	.	1e	mul-	.	.
=27-	=27-	=27-	=27-	=27-	=27-	=27-	=27-	=27-	=27-
!	!	!	!	!LO:TX:t=P:problem:kreska pseudotaktowa	!	!	!	!	!
2.F/	.	2F/	.	1A	.	.	.	2r	.
!	!	!LO:TX:t=P:problem:kreska pseudotaktowa	!	!	!	!LO:TX:t=P:problem:kreska pseudotaktowa	!	!	!
.	.	2F/	-bi-	.	.	2d\	.	1a	mul-
4F/	-bi-	.	.	.	.	.	.	.	.
!LO:TX:t=P:problem:kreska pseudotaktowa	!	!LO:TX:t=P:problem:kreska pseudotaktowa	!	!	!	!	!	!	!
1E	-t(ur)	1E	-tur.	2B\	.	2e\	-ti-	.	.
!	!	!	!	!LO:TX:t=P:problem:kreska pseudotaktowa	!	!LO:TX:t=P:problem:kreska pseudotaktowa	!	!LO:TX:t=P:problem:kreska pseudotaktowa	!
.	.	.	.	2B\	-bi-	2e\	-pli-	2g\	.
=28-	=28-	=28-	=28-	=28-	=28-	=28-	=28-	=28-	=28-
!	!	!LO:TX:a:t=5	!	!LO:TX:t=P:problem:kreska pseudotaktowa	!	!	!	!	!
00r	.	00r	.	1A,<	-tur	2f\	-ca-	2a\	-ti-
!	!	!	!	!	!	!	!	!LO:TX:t=P:problem:kreska pseudotaktowa	!
.	.	.	.	.	.	1e	.	2a\	-pli-
!	!	!	!	!LO:TX:a:t=3	!	!	!	!	!
.	.	.	.	0r	.	.	.	2cc\	-ca-
!	!	!	!	!	!	!LO:TX:t=P:problem:kreska pseudotaktowa	!	!	!
.	.	.	.	.	.	2d\	.	1b	.
=29-	=29-	=29-	=29-	=29-	=29-	=29-	=29-	=29-	=29-
!	!	!	!	!LO:TX:t=P:problem:kreska pseudotaktowa	!	!	!	!	!
.	.	.	.	.	.	2e\	.	.	.
!	!	!	!	!	!	!LO:TX:t=P:problem:kreska pseudotaktowa	!	!LO:TX:t=P:problem:kreska pseudotaktowa	!
.	.	.	.	.	.	2f\	.	2a\	.
.	.	.	.	1r	.	2g\	.	2b\	.
!	!	!	!	!	!	!LO:TX:t=P:problem:kreska pseudotaktowa	!	!LO:TX:t=P:problem:kreska pseudotaktowa	!
.	.	.	.	.	.	2e\	.	2cc\	.
=30-	=30-	=30-	=30-	=30-	=30-	=30-	=30-	=30-	=30-
!LO:TX:t=P:problem:kreska pseudotaktowa	!	!LO:TX:t=P:problem:kreska pseudotaktowa	!	!	!	!	!	!	!
1r	.	1r	.	2.d\	Si-	2f\	.	2dd\	.
!	!	!	!	!	!	!LO:TX:t=P:problem:kreska pseudotaktowa	!	!LO:TX:t=P:problem:kreska pseudotaktowa	!
.	.	.	.	.	.	2f\	-bi-	2a\	.
!	!	!	!	!LO:TX:t=P:problem:kreska pseudotaktowa	!	!	!	!	!
.	.	.	.	4d\	-cut	.	.	.	.
!	!	!	!	!	!	!LO:TX:t=P:problem:kreska pseudotaktowa	!	!	!
2.A\	Si-	2.A\	Si-	2c\	Ce-	1e	-tur	2cc\	.
!	!	!	!	!LO:TX:t=P:problem:kreska pseudotaktowa	!	!	!	!LO:TX:t=P:problem:kreska pseudotaktowa	!
.	.	.	.	2A\	.	.	.	2cc\	-bi-
!	!	!LO:TX:t=P:problem:kreska pseudotaktowa	!	!	!	!	!	!	!
4A\	-cut	4A\	-cut	.	.	.	.	.	.
=31-	=31-	=31-	=31-	=31-	=31-	=31-	=31-	=31-	=31-
!	!	!	!	!	!	!LO:TX:t=P:problem:kreska pseudotaktowa	!	!	!
!	!	!	!	!	!	!LO:TX:a:t=2	!	!LO:TX:t=P:problem:kreska pseudotaktowa	!
2G\	Ce-	2G\	Ce-	2B\	-dr(us)	0r	.	1b	-tur
!LO:TX:t=P:problem:kreska pseudotaktowa	!	!LO:TX:t=P:problem:kreska pseudotaktowa	!	!LO:TX:t=P:problem:kreska pseudotaktowa	!	!	!	!	!
2E/	-drus	2E,</	-dr(us)	2G/	Li-	.	.	.	.
!	!	!	!	!	!	!	!	!LO:TX:a:t=2	!
!	!	!	!	!	!	!	!	!LO:TX:t=P:problem:kreska pseudotaktowa	!
2F/	Li-	2F/	Li-	2A\	.	.	.	0r	.
!	!	!LO:TX:t=P:problem:kreska pseudotaktowa	!	!LO:TX:t=P:problem:kreska pseudotaktowa	!	!	!	!	!
2D/	.	2D/	.	2B\	.	.	.	.	.
=32-	=32-	=32-	=32-	=32-	=32-	=32-	=32-	=32-	=32-
2E/	.	2E/	.	2.c\	.	2r	.	.	.
!	!	!	!	!	!	!LO:TX:t=P:problem:kreska pseudotaktowa	!	!	!
1F	.	1F	.	.	.	(2c\	Si-	.	.
!	!	!	!	!LO:TX:t=P:problem:kreska pseudotaktowa	!	!	!	!	!
.	.	.	.	4B\	.	.	.	.	.
!	!	!	!	!	!	!	!	!LO:LB:g=original	!
.	.	.	.	2A/	.	2d\)	.	2r	.
!LO:TX:t=P:problem:kreska pseudotaktowa	!	!LO:TX:t=P:problem:kreska pseudotaktowa	!	!LO:TX:t=P:problem:kreska pseudotaktowa	!	!LO:TX:t=P:problem:kreska pseudotaktowa	!	!	!
2E/	.	2E/	.	2G/	.	2e,<\	-cut	2g\	Si-
=33-	=33-	=33-	=33-	=33-	=33-	=33-	=33-	=33-	=33-
!	!	!	!	!	!	!LO:TX:t=P:problem:kreska pseudotaktowa	!	!	!
2.D/	.	2D/	.	2F/	.	1f	Ce-	(2a\	-cut
!	!	!LO:TX:t=P:problem:kreska pseudotaktowa	!	!LO:TX:t=P:problem:kreska pseudotaktowa	!	!	!	!LO:TX:t=P:problem:kreska pseudotaktowa	!
.	.	2D/	-ba-	2F/	-ba-	.	.	2b\)	.
4D/	-ba-	.	.	.	.	.	.	.	.
!LO:TX:t=P:problem:kreska pseudotaktowa	!	!LO:TX:t=P:problem:kreska pseudotaktowa	!	!LO:TX:t=P:problem:kreska pseudotaktowa	!	!	!	!LO:TX:t=P:problem:kreska pseudotaktowa	!
1C	-ni	1C	-ni	0G	-ni	2e\	.	1cc	Ce-
!	!	!	!	!	!	!LO:TX:t=P:problem:kreska pseudotaktowa	!	!	!
.	.	.	.	.	.	2c,<\	-drus	.	.
!	!	!	!	!	!	!LO:LB:g=original	!	!	!
=34-	=34-	=34-	=34-	=34-	=34-	=34-	=34-	=34-	=34-
!	!	!LO:TX:a:t=3	!	!	!	!	!	!	!
0r	.	0r	.	.	.	2d\	Li-	2b\	.
!	!	!	!	!	!	!LO:TX:t=P:problem:kreska pseudotaktowa	!	!LO:TX:t=P:problem:kreska pseudotaktowa	!
.	.	.	.	.	.	2Bn/	-ba-	2g/	drus
!	!	!	!	!LO:TX:a:t=7.	!	!	!	!	!
.	.	.	.	00r	.	2A,</	-ni	2a/	Li-
!	!	!	!	!	!	!LO:TX:t=P:problem:kreska pseudotaktowa	!	!LO:TX:t=P:problem:kreska pseudotaktowa	!
.	.	.	.	.	.	2d\	mul-	2f/	-ba-
=35-	=35-	=35-	=35-	=35-	=35-	=35-	=35-	=35-	=35-
!LO:TX:t=P:problem:kreska pseudotaktowa	!	!LO:TX:t=P:problem:kreska pseudotaktowa	!	!	!	!	!	!	!
1r	.	1r	.	.	.	2c/	-ti-	2e,</	-ni
!	!	!	!	!	!	!LO:TX:t=P:problem:kreska pseudotaktowa	!	!LO:TX:t=P:problem:kreska pseudotaktowa	!
.	.	.	.	.	.	2A/	-pli-	2a\	mul-
2r	.	2r	.	.	.	(2.c\	-ca-	2g/	-ti-
!LO:TX:t=P:problem:kreska pseudotaktowa	!	!LO:TX:t=P:problem:kreska pseudotaktowa	!	!	!	!	!	!LO:TX:t=P:problem:kreska pseudotaktowa	!
2A\	mul-	2A\	mul-	.	.	.	.	2e/	-pli-
!	!	!	!	!	!	!LO:TX:t=P:problem:kreska pseudotaktowa	!	!	!
.	.	.	.	.	.	4d\	.	.	.
!LO:LB:g=original	!	!	!	!	!	!	!	!	!
=36-	=36-	=36-	=36-	=36-	=36-	=36-	=36-	=36-	=36-
!	!	!	!	!	!	!LO:TX:t=P:problem:kreska pseudotaktowa	!	!	!
2G\	-ti-	2G\	-ti-	.	.	1e)	.	2.g\	-ca-
!	!	!LO:TX:t=P:problem:kreska pseudotaktowa	!	!	!	!	!	!	!
2E/	-pli-	2E/	-pli-	.	.	.	.	.	.
!	!	!	!	!	!	!	!	!LO:TX:t=P:problem:kreska pseudotaktowa	!
.	.	.	.	.	.	.	.	4a\	.
!	!	!	!	!	!	!LO:N:xstem:cue:vis=4	!	!	!
2G\	-ca-	2G\	-ca-	0r	.	2e\	.	2b\	.
!LO:TX:t=P:problem:kreska pseudotaktowa	!	!LO:TX:t=P:problem:kreska pseudotaktowa	!	!	!	!LO:TX:t=P:problem:kreska pseudotaktowa	!	!LO:TX:t=P:problem:kreska pseudotaktowa	!
2A\	.	2A\	.	.	.	2e\	.	2cc\	.
=37-	=37-	=37-	=37-	=37-	=37-	=37-	=37-	=37-	=37-
!	!	!LO:TX:t=P:problem:kreska pseudotaktowa	!	!	!	!	!	!	!
1D	.	1D	.	.	.	2.d\	.	2b\	.
.	.	.	.	.	.	.	.	1a	.
!	!	!	!	!	!	!LO:TX:t=P:problem:kreska pseudotaktowa	!	!	!
.	.	.	.	.	.	4c/	.	.	.
!	!	!	!	!LO:TX:t=P:problem:kreska pseudotaktowa	!	!	!	!	!
2.E/	.	2E/	.	1r	.	2B/	.	.	.
!	!	!LO:TX:t=P:problem:kreska pseudotaktowa	!	!	!	!LO:TX:t=P:problem:kreska pseudotaktowa	!	!LO:TX:t=P:problem:kreska pseudotaktowa	!
.	.	2E/	-bi-	.	.	2B/	-bi-	2g/	-bi-
4E/	-bi-	.	.	.	.	.	.	.	.
=38-	=38-	=38-	=38-	=38-	=38-	=38-	=38-	=38-	=38-
!LO:TX:t=P:problem:kreska pseudotaktowa	!	!LO:TX:t=P:problem:kreska pseudotaktowa	!	!	!	!LO:TX:t=P:problem:kreska pseudotaktowa	!	!LO:TX:t=P:problem:kreska pseudotaktowa	!
0AA	-t(ur)	0AA	-tur.	2r	.	1A	-tur	0a	-tur.
!	!	!	!	!LO:TX:t=P:problem:kreska pseudotaktowa	!	!	!	!	!
.	.	.	.	2A/	Si-	.	.	.	.
.	.	.	.	2A/	cut	2r	.	.	.
!	!	!	!	!LO:TX:t=P:problem:kreska pseudotaktowa	!	!LO:TX:t=P:problem:kreska pseudotaktowa	!	!	!
.	.	.	.	2A/	ce-	2e\	Si-	.	.
=39-	=39-	=39-	=39-	=39-	=39-	=39-	=39-	=39-	=39-
!	!	!LO:TX:a:t=3	!	!	!	!	!	!LO:TX:a:t=5	!
0r	.	0r	.	2G,</	-dr(us)	2e\	-cut	00r	.
!	!	!	!	!LO:TX:t=P:problem:kreska pseudotaktowa	!	!LO:TX:t=P:problem:kreska pseudotaktowa	!	!	!
.	.	.	.	2A/	mul-	2e\	Ce-	.	.
.	.	.	.	2B\	-ti-	2d,<\	-dr(us)	.	.
!	!	!	!	!LO:TX:t=P:problem:kreska pseudotaktowa	!	!LO:TX:t=P:problem:kreska pseudotaktowa	!	!	!
.	.	.	.	2G/	-pli-	2e\	mul-	.	.
!	!	!	!	!LO:LB:g=original	!	!	!	!	!
=40-	=40-	=40-	=40-	=40-	=40-	=40-	=40-	=40-	=40-
!LO:TX:t=P:problem:kreska pseudotaktowa	!	!LO:TX:t=P:problem:kreska pseudotaktowa	!	!	!	!	!	!	!
1r	.	1r	.	2A\	-ca-	2c/	-ti-	.	.
!	!	!	!	!	!	!LO:TX:t=P:problem:kreska pseudotaktowa	!	!	!
.	.	.	.	1c	.	2c/	-pli-	.	.
1G	Plan-	1G	Plan-	.	.	2d\	-ca-	.	.
!	!	!	!	!LO:TX:t=P:problem:kreska pseudotaktowa	!	!LO:TX:t=P:problem:kreska pseudotaktowa	!	!	!
.	.	.	.	2B\	-bi-	2d\	-bi-	.	.
=41-	=41-	=41-	=41-	=41-	=41-	=41-	=41-	=41-	=41-
!	!	!	!	!	!	!LO:TX:t=P:problem:kreska pseudotaktowa	!	!LO:TX:t=P:problem:kreska pseudotaktowa	!
2A\	-ta-	2A\	-ta-	2c,<\	-tur.	1c,<	-tur	1r	.
!	!	!	!	!LO:TX:t=P:problem:kreska pseudotaktowa	!	!	!	!	!
1c	.	1c	.	2e\	Plan-	.	.	.	.
!	!	!	!	!	!	!LO:PB:g=original	!	!	!
!	!	!	!	!	!	!LO:TX:a:t=4	!	!LO:TX:t=P:problem:kreska pseudotaktowa	!
!	!	!	!	!	!	!LO:TX:t=P:problem:kreska pseudotaktowa	!	!	!
.	.	.	.	(2e\	-ta-	00r	.	1g	Plan-
!LO:TX:t=P:problem:kreska pseudotaktowa	!	!LO:TX:t=P:problem:kreska pseudotaktowa	!	!	!	!	!	!	!
2B\	.	2B\	.	2d\)	.	.	.	.	.
=42-	=42-	=42-	=42-	=42-	=42-	=42-	=42-	=42-	=42-
!	!	!LO:TX:t=P:problem:kreska pseudotaktowa	!	!LO:TX:t=P:problem:kreska pseudotaktowa	!	!	!	!	!
1A	.	1A	.	1c	.	.	.	(2a\	-ta-
!	!	!LO:SIC:v:t=custos G	!	!	!	!	!	!LO:TX:t=P:problem:kreska pseudotaktowa	!
.	.	.	.	.	.	.	.	2cc\)	.
!	!	!LO:LB:g=original	!	!	!	!	!	!	!
2G,<\	-tus	2G,<\	-tus	2d,<\	-tus	.	.	2cc,<\	-t(us)
!	!	!LO:TX:t=P:problem:kreska pseudotaktowa	!	!LO:TX:t=P:problem:kreska pseudotaktowa	!	!	!	!LO:TX:t=P:problem:kreska pseudotaktowa	!
*	*ij	*	*	*	*	*	*	*	*
2G\	plan-	2G\	plan-	2d\	plan-	.	.	2b\	plan-
!	!	!	!	!	!	!	!	!LO:LB:g=original	!
=43-	=43-	=43-	=43-	=43-	=43-	=43-	=43-	=43-	=43-
(2F/	-ta-	2F/	.	(2d\	-ta-	.	.	2a/	-ta-
!	!	!LO:TX:t=P:problem:kreska pseudotaktowa	!	!LO:TX:t=P:problem:kreska pseudotaktowa	!	!	!	!LO:TX:t=P:problem:kreska pseudotaktowa	!
2E/)	.	2E/	-ta-	2e\)	.	.	.	2g/	.
!	!	!LO:TX:t=P:problem:kreska pseudotaktowa	!	!LO:TX:t=P:problem:kreska pseudotaktowa	!	!	!	!	!
1A	.	1A	.	1c	.	2r	.	2e/	.
!	!	!	!	!	!	!	!	!LO:TX:t=P:problem:kreska pseudotaktowa	!
.	.	.	.	.	.	1c	Plan-	2f/	.
=44-	=44-	=44-	=44-	=44-	=44-	=44-	=44-	=44-	=44-
!LO:TX:t=P:problem:kreska pseudotaktowa	!	!LO:TX:t=P:problem:kreska pseudotaktowa	!	!LO:TX:t=P:problem:kreska pseudotaktowa	!	!	!	!LO:TX:t=P:problem:kreska pseudotaktowa	!
1G	-tus	1G	-tus	1d	-t(us)	.	.	1g	.
*	*Xij	*	*	*	*	*	*	*	*
!	!	!	!	!	!	!LO:TX:t=P:problem:kreska pseudotaktowa	!	!	!
.	.	.	.	.	.	2B/	.	.	.
!	!	!	!	!	!	!LO:TX:t=P:problem:kreska pseudotaktowa	!	!LO:TX:t=P:problem:kreska pseudotaktowa	!
2r	.	2r	.	2rc	.	1c	-ta-	1g	-tus
!	!	!LO:TX:t=P:problem:kreska pseudotaktowa	!	!LO:TX:t=P:problem:kreska pseudotaktowa	!	!	!	!	!
2c\	in	2c\	in	2e\	in	.	.	.	.
=45-	=45-	=45-	=45-	=45-	=45-	=45-	=45-	=45-	=45-
!	!	!	!	!	!	!LO:TX:t=P:problem:kreska pseudotaktowa	!	!	!
2c\	Do-	2c\	Do-	2e\	do-	1G	-t(us)	2r	.
!LO:TX:t=P:problem:kreska pseudotaktowa	!	!LO:TX:t=P:problem:kreska pseudotaktowa	!	!LO:TX:t=P:problem:kreska pseudotaktowa	!	!	!	!	!
2B\	-mo	2B\	-mo	2d\	-mo	.	.	1g	plan-
2.A\	Do-	2A\	Do-	2c\	Do-	2r	.	.	.
!	!	!LO:TX:t=P:problem:kreska pseudotaktowa	!	!LO:TX:t=P:problem:kreska pseudotaktowa	!	!	!	!LO:TX:t=P:problem:kreska pseudotaktowa	!
.	.	2A\	-mi-	2c\	-mi-	1c	plan-	2f/	.
4A\	-mi-	.	.	.	.	.	.	.	.
=46-	=46-	=46-	=46-	=46-	=46-	=46-	=46-	=46-	=46-
!LO:TX:t=P:problem:kreska pseudotaktowa	!	!LO:TX:t=P:problem:kreska pseudotaktowa	!	!LO:TX:t=P:problem:kreska pseudotaktowa	!	!	!	!	!
1G	-ni	1G	-ni	1d	-ni.	.	.	2g/	-ta-
!LO:LB:g=original	!	!	!	!	!	!LO:TX:t=P:problem:kreska pseudotaktowa	!	!LO:TX:t=P:problem:kreska pseudotaktowa	!
.	.	.	.	.	.	2B/	.	2g,</	-tus
!	!	!LO:TX:a:t=5	!	!LO:TX:a:t=6.	!	!	!	!	!
00r	.	00r	.	00r	.	2c\	-ta-	(2a\	in
!	!	!	!	!	!	!LO:TX:t=P:problem:kreska pseudotaktowa	!	!LO:TX:t=P:problem:kreska pseudotaktowa	!
.	.	.	.	.	.	2d\	-tus	2b\)	.
=47-	=47-	=47-	=47-	=47-	=47-	=47-	=47-	=47-	=47-
.	.	.	.	.	.	2e\	in	2cc\	Do-
!	!	!	!	!	!	!LO:TX:t=P:problem:kreska pseudotaktowa	!	!LO:TX:t=P:problem:kreska pseudotaktowa	!
.	.	.	.	.	.	2f\	.	2a\	.
!	!	!	!	!	!	!	!	!LO:TX:t=P:problem:kreska pseudotaktowa	!
.	.	.	.	.	.	2g\	Do-	1b,<	-mo
!	!	!	!	!	!	!LO:TX:t=P:problem:kreska pseudotaktowa	!	!	!
.	.	.	.	.	.	2e\	-mo	.	.
=48-	=48-	=48-	=48-	=48-	=48-	=48-	=48-	=48-	=48-
.	.	.	.	.	.	2.f\	do-	2a\	Do-
!	!	!	!	!	!	!	!	!LO:TX:t=P:problem:kreska pseudotaktowa	!
.	.	.	.	.	.	.	.	2cc\	.
!	!	!	!	!	!	!LO:TX:t=P:problem:kreska pseudotaktowa	!	!	!
.	.	.	.	.	.	4e\	.	.	.
!LO:TX:t=P:problem:kreska pseudotaktowa	!	!LO:TX:t=P:problem:kreska pseudotaktowa	!	!LO:TX:t=P:problem:kreska pseudotaktowa	!	!	!	!	!
1r	.	1r	.	0r	.	2d\	.	2b\	.
!	!	!	!	!	!	!LO:TX:t=P:problem:kreska pseudotaktowa	!	!	!
.	.	.	.	.	.	2c/	-mo	1a	.
=49-	=49-	=49-	=49-	=49-	=49-	=49-	=49-	=49-	=49-
!	!	!LO:TX:t=P:problem:kreska pseudotaktowa	!	!	!	!	!	!	!
1E	in	1E	in	.	.	2Bn/	Do-	.	.
!	!	!	!	!	!	!	!	!LO:TX:t=P:problem:kreska pseudotaktowa	!
!	!	!	!	!	!	!LO:TX:t=P:problem:kreska pseudotaktowa	!	!LO:TX:a:t=P:problem:# above	!
.	.	.	.	.	.	2B/	-mi-	2g#X/	-mi-
!	!	!	!	!LO:TX:t=P:problem:kreska pseudotaktowa	!	!LO:TX:t=P:problem:kreska pseudotaktowa	!	!LO:TX:t=P:problem:kreska pseudotaktowa	!
!	!	!	!	!	!	!	!	!LO:SIC:v:t=custos a	!
1.A	a-	1.A	a-	1c	in	1A,<	-ni	1a	-ni.
!	!	!	!	!	!	!	!	!LO:PB:g=original	!
=50-	=50-	=50-	=50-	=50-	=50-	=50-	=50-	=50-	=50-
!	!	!	!	!	!	!LO:TX:t=P:problem:kreska pseudotaktowa	!	!	!
.	.	.	.	2c\	a-	1e	in	2r	.
!	!	!LO:TX:t=P:problem:kreska pseudotaktowa	!	!LO:TX:t=P:problem:kreska pseudotaktowa	!	!	!	!LO:TX:t=P:problem:kreska pseudotaktowa	!
2A\	-trÿs	2A\	-trÿs	2c\	-trÿs	.	.	2a\	in
!	!	!	!	!LO:TX:t=P:problem:kreska pseudotaktowa	!	!	!	!	!
2D,</	.	2D,</	.	1d,<	.	2f\	a-	2a\	a-
!LO:TX:t=P:problem:kreska pseudotaktowa	!	!LO:TX:t=P:problem:kreska pseudotaktowa	!	!	!	!LO:TX:t=P:problem:kreska pseudotaktowa	!	!LO:TX:t=P:problem:kreska pseudotaktowa	!
!	!	!	!	!	!	!LO:SIC:v:t=custos g	!	!	!
2D/	Do-	2D/	do-	.	.	2f\	-tri-	2a\	-trÿs
!	!	!	!	!	!	!LO:LB:g=original	!	!	!
=51-	=51-	=51-	=51-	=51-	=51-	=51-	=51-	=51-	=51-
!	!	!	!	!	!	!	!	!LO:TX:t=P:problem:kreska pseudotaktowa	!
2G,<\	-mus	2G,<\	-m(us)	2d\	do-	2g\	-is	1b	.
!	!	!LO:TX:t=P:problem:kreska pseudotaktowa	!	!LO:TX:t=P:problem:kreska pseudotaktowa	!	!LO:TX:t=P:problem:kreska pseudotaktowa	!	!	!
2G\	DE-	2G\	De-	2d,<\	-mûs	2g\	Do-	.	.
2E,</	-i	2E/	-i	2e\	De-	2g,<\	-m(us)	2b\	Do-
!	!	!	!	!LO:TX:t=P:problem:kreska pseudotaktowa	!	!LO:TX:t=P:problem:kreska pseudotaktowa	!	!	!
1A	no-	1A	no-	2c\	-i	2e\	De-	1cc	.
=52-	=52-	=52-	=52-	=52-	=52-	=52-	=52-	=52-	=52-
.	.	.	.	2A/	no-	(4c\	-i	.	.
.	.	.	.	.	.	4d\)	.	.	.
!LO:TX:t=P:problem:kreska pseudotaktowa	!	!LO:TX:t=P:problem:kreska pseudotaktowa	!	!LO:TX:t=P:problem:kreska pseudotaktowa	!	!	!	!LO:TX:t=P:problem:kreska pseudotaktowa	!
2G\	.	2G\	.	2B/	.	1e	no-	2b\	-mûs
!	!	!LO:TX:t=P:problem:kreska pseudotaktowa	!	!	!	!	!	!	!
1F	.	1F	.	2c\	.	.	.	2a\	De-
!	!	!	!	!LO:TX:t=P:problem:kreska pseudotaktowa	!	!LO:TX:t=P:problem:kreska pseudotaktowa	!	!LO:TX:t=P:problem:kreska pseudotaktowa	!
.	.	.	.	2A\	.	2d\	.	2a\	-i
=53-	=53-	=53-	=53-	=53-	=53-	=53-	=53-	=53-	=53-
!LO:TX:t=P:problem:kreska pseudotaktowa	!	!LO:TX:t=P:problem:kreska pseudotaktowa	!	!LO:TX:t=P:problem:kreska pseudotaktowa	!	!	!	!LO:TX:t=P:problem:kreska pseudotaktowa	!
0.E	-ſtri	0.E	.	0B	-ſtri	2e,<\	-stri	1gny	noſ-
!	!	!	!	!	!	!LO:TX:t=P:problem:kreska pseudotaktowa	!	!	!
.	.	.	.	.	.	2e\	in	.	.
.	.	.	.	.	.	(2.e\	a-	2g,</	-tri
!	!	!	!	!	!	!	!	!LO:TX:t=P:problem:kreska pseudotaktowa	!
.	.	.	.	.	.	.	.	2g/	in
!	!	!	!	!	!	!LO:TX:t=P:problem:kreska pseudotaktowa	!	!	!
.	.	.	.	.	.	4f\)	.	.	.
!	!	!	!	!LO:LB:g=original	!	!	!	!	!
=54-	=54-	=54-	=54-	=54-	=54-	=54-	=54-	=54-	=54-
!	!	!	!	!LO:TX:a:t=7	!	!	!	!	!
.	.	.	.	00r	.	2g\	.	(2.b\	a-
!	!	!	!	!	!	!LO:TX:t=P:problem:kreska pseudotaktowa	!	!	!
.	.	.	.	.	.	2e\	-trÿs	.	.
!	!	!	!	!	!	!	!	!LO:TX:t=P:problem:kreska pseudotaktowa	!
.	.	.	.	.	.	.	.	4cc\)	.
!	!	!LO:TX:a:t=5	!	!	!	!	!	!	!
00r	.	00r	.	.	.	2f\	do-	2dd\	.
!	!	!	!	!	!	!LO:TX:t=P:problem:kreska pseudotaktowa	!	!LO:TX:t=P:problem:kreska pseudotaktowa	!
.	.	.	.	.	.	2g\	.	2b\	.
=55-	=55-	=55-	=55-	=55-	=55-	=55-	=55-	=55-	=55-
.	.	.	.	.	.	2e,<\	-m(us)	2cc,<\	-trÿs
!	!	!	!	!	!	!LO:TX:t=P:problem:kreska pseudotaktowa	!	!LO:TX:t=P:problem:kreska pseudotaktowa	!
.	.	.	.	.	.	2f\	De-	2a\	Do-
.	.	.	.	.	.	2d\	i	2b\	-mûs
!	!	!	!	!	!	!LO:TX:t=P:problem:kreska pseudotaktowa	!	!LO:TX:t=P:problem:kreska pseudotaktowa	!
.	.	.	.	.	.	2e\	no-	2cc\	De-
=56-	=56-	=56-	=56-	=56-	=56-	=56-	=56-	=56-	=56-
.	.	.	.	0r	.	2f\	.	2a\	-i
!	!	!	!	!	!	!	!	!LO:TX:t=P:problem:kreska pseudotaktowa	!
.	.	.	.	.	.	4e\	.	2b\	.
!	!	!	!	!	!	!LO:TX:t=P:problem:kreska pseudotaktowa	!	!	!
.	.	.	.	.	.	4d\	.	.	.
!LO:TX:t=P:problem:kreska pseudotaktowa	!	!LO:TX:t=P:problem:kreska pseudotaktowa	!	!	!	!	!	!LO:LB:g=original	!
1r	.	1r	.	.	.	2c/	.	2cc\	no-
!	!	!	!	!	!	!LO:TX:t=P:problem:kreska pseudotaktowa	!	!	!
.	.	.	.	.	.	2d/	.	4b\	.
!	!	!	!	!	!	!	!	!LO:TX:t=P:problem:kreska pseudotaktowa	!
.	.	.	.	.	.	.	.	4a\	.
=57-	=57-	=57-	=57-	=57-	=57-	=57-	=57-	=57-	=57-
!	!	!	!	!LO:TX:t=P:problem:kreska pseudotaktowa	!	!LO:TX:t=P:problem:kreska pseudotaktowa	!	!	!
(2.E/	in	2.E/	in	1r	.	1e	-stri	2.g\	.
!	!	!LO:TX:t=P:problem:kreska pseudotaktowa	!	!	!	!	!	!LO:TX:t=P:problem:kreska pseudotaktowa	!
!	!	!LO:SIC:v:t=custos F	!	!	!	!	!	!	!
4F/)	.	4F/	.	.	.	.	.	4a\	.
!	!	!LO:LB:g=original	!	!	!	!LO:LB:g=original	!	!LO:TX:t=P:problem:kreska pseudotaktowa	!
2G\	a-	2G\	a-	(2.B\	in	2d\	do-	1b,<	-stri
!	!	!LO:TX:t=P:problem:kreska pseudotaktowa	!	!	!	!LO:TX:t=P:problem:kreska pseudotaktowa	!	!	!
2E/	.	2E/	.	.	.	2e\	-m(us)	.	.
!	!	!	!	!LO:TX:t=P:problem:kreska pseudotaktowa	!	!	!	!	!
.	.	.	.	4c\)	.	.	.	.	.
=58-	=58-	=58-	=58-	=58-	=58-	=58-	=58-	=58-	=58-
2F,<\	-trÿs	2F,<\	-trÿs	2d\	a-	2A/	De-	2a\	do-
!LO:TX:t=P:problem:kreska pseudotaktowa	!	!LO:TX:t=P:problem:kreska pseudotaktowa	!	!LO:TX:t=P:problem:kreska pseudotaktowa	!	!LO:TX:t=P:problem:kreska pseudotaktowa	!	!LO:TX:t=P:problem:kreska pseudotaktowa	!
2G\	Do-	2G\	do-	2B\	.	2d\	-i	2b\	-m(us)
2E,</	-m(us)	2E/	-mûs	2c,<\	-trÿs	2e\	no-	2g\	De-
!	!	!LO:TX:t=P:problem:kreska pseudotaktowa	!	!LO:TX:t=P:problem:kreska pseudotaktowa	!	!LO:TX:t=P:problem:kreska pseudotaktowa	!	!LO:TX:t=P:problem:kreska pseudotaktowa	!
2F/	De-	2F/	De-	2A/	do-	2c/	.	2a\	-i
=59-	=59-	=59-	=59-	=59-	=59-	=59-	=59-	=59-	=59-
2D/	-i	2D/	-i	2B,<\	-mus	2d\	.	2f/	no-
!LO:TX:t=P:problem:kreska pseudotaktowa	!	!LO:TX:t=P:problem:kreska pseudotaktowa	!	!LO:TX:t=P:problem:kreska pseudotaktowa	!	!LO:TX:t=P:problem:kreska pseudotaktowa	!	!	!
2E/	no-	2E/	no-	2c\	De-	2G/	.	4e/	.
!	!	!	!	!	!	!	!	!LO:TX:t=P:problem:kreska pseudotaktowa	!
.	.	.	.	.	.	.	.	4d/	.
2F/	.	2F/	.	2A/	-i	2A/	.	2c/	.
!	!	!	!	!LO:TX:t=P:problem:kreska pseudotaktowa	!	!	!	!LO:TX:t=P:problem:kreska pseudotaktowa	!
4E/	.	4E/	.	2B/	.	4G/	.	[2e/	.
!	!	!LO:TX:t=P:problem:kreska pseudotaktowa	!	!	!	!LO:TX:t=P:problem:kreska pseudotaktowa	!	!	!
4D/	.	4D/	.	.	.	4F/	.	.	.
=60-	=60-	=60-	=60-	=60-	=60-	=60-	=60-	=60-	=60-
!	!	!	!	!	!	!LO:TX:t=P:problem:kreska pseudotaktowa	!	!LO:N:xstem:cue	!
2C/	.	2C/	.	2c\	no-	1E	.	4e/]	.
.	.	.	.	.	.	.	.	4f/	.
!	!	!	!	!	!	!	!	!LO:TX:t=P:problem:kreska pseudotaktowa	!
1E	.	1E	.	4B\	.	.	.	[2g/	.
!	!	!	!	!LO:TX:t=P:problem:kreska pseudotaktowa	!	!	!	!	!
.	.	.	.	4A\	.	.	.	.	.
!	!	!	!	!	!	!	!	!LO:N:xstem:cue	!
.	.	.	.	2G/	.	2B/	.	4g/]	.
.	.	.	.	.	.	.	.	4f/	.
!LO:TX:t=P:problem:kreska pseudotaktowa	!	!LO:TX:t=P:problem:kreska pseudotaktowa	!	!LO:TX:t=P:problem:kreska pseudotaktowa	!	!LO:TX:t=P:problem:kreska pseudotaktowa	!	!LO:TX:t=P:problem:kreska pseudotaktowa	!
2C/	.	2C/	.	2A/	.	2c/	.	[2e/	.
!LO:PB:g=original	!	!	!	!	!	!	!	!	!
=61-	=61-	=61-	=61-	=61-	=61-	=61-	=61-	=61-	=61-
!	!	!	!	!LO:TX:t=P:problem:kreska pseudotaktowa	!	!	!	!	!
!	!	!LO:TX:t=P:problem:kreska pseudotaktowa	!	!LO:TX:a:t=P:problem:♮ above	!	!	!	!	!
0D	.	0D	.	0Fn	.	1.A	.	2e/]	.
.	.	.	.	.	.	.	.	4d/	.
!	!	!	!	!	!	!	!	!LO:TX:t=P:problem:kreska pseudotaktowa	!
.	.	.	.	.	.	.	.	4c/	.
!	!	!	!	!	!	!	!	!LO:TX:t=P:problem:kreska pseudotaktowa	!
.	.	.	.	.	.	.	.	1d	.
!	!	!	!	!	!	!LO:TX:t=P:problem:kreska pseudotaktowa	!	!	!
.	.	.	.	.	.	2B/	.	.	.
=62-	=62-	=62-	=62-	=62-	=62-	=62-	=62-	=62-	=62-
!LO:TX:t=P:problem:kreska pseudotaktowa	!	!LO:TX:t=P:problem:kreska pseudotaktowa	!	!LO:TX:t=P:problem:kreska pseudotaktowa	!	!LO:TX:t=P:problem:kreska pseudotaktowa	!	!LO:TX:a:t=4	!
!	!	!	!	!	!	!	!	!LO:TX:t=P:problem:kreska pseudotaktowa	!
0AA	.	0AA	.	1E	.	0c	.	00e	.
!	!	!	!	!LO:TX:t=P:problem:kreska pseudotaktowa	!	!	!	!	!
.	.	.	.	1A	.	.	.	.	.
=63-	=63-	=63-	=63-	=63-	=63-	=63-	=63-	=63-	=63-
!	!	!LO:TX:t=P:problem:kreska pseudotaktowa	!	!	!	!	!	!	!
0E	.	0E	.	2G#X/	.	2B/	.	.	.
!	!	!	!	!	!	!LO:TX:t=P:problem:kreska pseudotaktowa	!	!	!
.	.	.	.	1A	.	2c/	.	.	.
!	!	!	!	!	!	!LO:TX:t=P:problem:kreska pseudotaktowa	!	!	!
.	.	.	.	.	.	1B	.	.	.
!	!	!	!	!LO:TX:t=P:problem:kreska pseudotaktowa	!	!	!	!	!
.	.	.	.	2G#X/	.	.	.	.	.
=64-	=64-	=64-	=64-	=64-	=64-	=64-	=64-	=64-	=64-
!	!	!LO:TX:b:t=o. ad M.D.Gm	!	!	!	!	!	!LO:TX:b:t=O. ad M.D.Gm.	!
0AA;	-ſtri.	0AA;	-stri.	0A;	-stri.	0c#X;	-stri.	0e;	-stri.
==	==	==	==	==	==	==	==	==	==
*-	*-	*-	*-	*-	*-	*-	*-	*-	*-
!!!system-decoration: [s1,s2,s3,s4]s5
!!!RDF**kern: < = below
!!!ENC: Marta Lawrence
!!!END: 2021-02-27
!!!ENC: Tomasz Grochalski
!!!END: 2021-02-12
